X:1
T: Soft Shoe Reel
C: R-46
C: Jim Guinness 1981
M: C|
Z:
R: reel
K: G
"G"GABG "Em"AGEF| "G"GFGA Bd3| "C"edef "Am"gedc| "A7"BA2G "D7"A4|
"G"GABG "Em"AGEF| "G"GFGA Bd3| "C"bage "Am"dBcA| "D7"BGA2 "G"G4 :|
|:\
"G"gabg aged| "Em"edBd edBA| "G"GABd "Em"edgd| "Am"BA2G "D7"A4 |
"G"GABd "Em"edBd| "C"edge "G"dega| "C"bgaf "A7"gfed| "D7"egfa "G"g4 :|
%
